Numix-GalliumOS/16/mimetypes/application-rss.svg

<?xml version="1.0" encoding="UTF-8" standalone="no"?>
<svg
   xmlns:dc="http://purl.org/dc/elements/1.1/"
   xmlns:cc="http://creativecommons.org/ns#"
   xmlns:rdf="http://www.w3.org/1999/02/22-rdf-syntax-ns#"
   xmlns:svg="http://www.w3.org/2000/svg"
   xmlns="http://www.w3.org/2000/svg"
   xmlns:sodipodi="http://sodipodi.sourceforge.net/DTD/sodipodi-0.dtd"
   xmlns:inkscape="http://www.inkscape.org/namespaces/inkscape"
   width="16"
   height="16"
   viewBox="0 0 16 16"
   id="svg2"
   version="1.1"
   inkscape:version="0.48.5 r10040"
   sodipodi:docname="application-rss.svg">
  <metadata
     id="metadata16">
    <rdf:RDF>
      <cc:Work
         rdf:about="">
        <dc:format>image/svg+xml</dc:format>
        <dc:type
           rdf:resource="http://purl.org/dc/dcmitype/StillImage" />
      </cc:Work>
    </rdf:RDF>
  </metadata>
  <defs
     id="defs14" />
  <sodipodi:namedview
     pagecolor="#ffffff"
     bordercolor="#666666"
     borderopacity="1"
     objecttolerance="10"
     gridtolerance="10"
     guidetolerance="10"
     inkscape:pageopacity="0"
     inkscape:pageshadow="2"
     inkscape:window-width="1280"
     inkscape:window-height="970"
     id="namedview12"
     showgrid="true"
     inkscape:zoom="29.5"
     inkscape:cx="6.4953847"
     inkscape:cy="7.8644418"
     inkscape:window-x="0"
     inkscape:window-y="0"
     inkscape:window-maximized="1"
     inkscape:current-layer="svg2">
    <inkscape:grid
       type="xygrid"
       id="grid3004" />
  </sodipodi:namedview>
  <path
     style="fill:#ff6401;fill-opacity:1"
     d="M 2.667969,-4.461e-4 C 2.324219,-4.461e-4 2,0.3378119 2,0.6964466 L 2,15.303108 C 2,15.641365 2.34375,16 2.667969,16 l 10.664062,0 C 13.65625,16 14,15.641365 14,15.303108 L 14,3.9995537 9.9999996,-4.461e-4 z"
     id="path4-4"
     inkscape:connector-curvature="0"
     sodipodi:nodetypes="ssssssccs" />
  <path
     style="fill:#ffffff"
     d="m 4.0468927,11.123095 c 0,-0.243844 0.089098,-0.450176 0.2579136,-0.618991 0.1688159,-0.168817 0.3751466,-0.253225 0.6236809,-0.253225 0.2391562,0 0.4407978,0.08441 0.6049235,0.253225 0.1735062,0.168815 0.2579136,0.375147 0.2579136,0.618991 0,0.239156 -0.084407,0.445486 -0.2579136,0.614302 -0.1641257,0.164127 -0.3657673,0.248535 -0.6049235,0.248535 -0.2485343,0 -0.454865,-0.08441 -0.6236809,-0.248535 C 4.1359903,11.568581 4.0468927,11.366941 4.0468927,11.123095 M 4,7.1793666 4,8.6330601 c 1.8569755,0 3.3622508,1.5099639 3.3622508,3.3669399 l 1.4583826,0 C 8.8206334,9.3364594 6.6588504,7.1793666 4,7.1793666 z M 4,4 4,5.603751 c 3.5263778,0 6.38687,2.8651822 6.38687,6.396249 L 12,12 C 12,7.5826497 8.4126612,4 4,4 z"
     id="path10"
     inkscape:connector-curvature="0" />
  <path
     style="fill:#000000;fill-opacity:0.19599998"
     d="m 10.583223,3.3315847 0.0154,0.01953 0.04005,-0.01953 z m 0.02978,0.667969 3.387,3.664062 0,-3.664062 z"
     id="path6"
     inkscape:connector-curvature="0"
     sodipodi:nodetypes="cccccccc" />
  <path
     style="fill:#ffffff;fill-opacity:0.39200003"
     d="m 9.9999996,-4.461e-4 3.9963964,3.9999998 -3.383784,0 c -0.299099,0 -0.6126124,-0.317117 -0.6126124,-0.616216 z"
     id="path8"
     inkscape:connector-curvature="0"
     sodipodi:nodetypes="ccssc" />
</svg>

<svg xmlns="http://www.w3.org/2000/svg" viewBox="0 0 16 16">
 <path d="m 2.668 0 c -0.344 0 -0.668 0.338 -0.668 0.697 l 0 14.607 c 0 0.338 0.344 0.697 0.668 0.697 l 10.664 0 c 0.324 0 0.668 -0.359 0.668 -0.697 l 0 -11.304 -4 -4 z" style="fill:#ff6401;fill-opacity:1"/>
 <path d="m 4.047 11.123 c 0 -0.244 0.089 -0.45 0.258 -0.619 0.169 -0.169 0.375 -0.253 0.624 -0.253 0.239 0 0.441 0.084 0.605 0.253 0.174 0.169 0.258 0.375 0.258 0.619 0 0.239 -0.084 0.445 -0.258 0.614 -0.164 0.164 -0.366 0.249 -0.605 0.249 -0.249 0 -0.455 -0.084 -0.624 -0.249 c -0.169 -0.169 -0.258 -0.37 -0.258 -0.614 m -0.047 -3.944 0 1.454 c 1.857 0 3.362 1.51 3.362 3.367 l 1.458 0 c 0 -2.664 -2.162 -4.821 -4.821 -4.821 z m 0 -3.179 0 1.604 c 3.526 0 6.387 2.865 6.387 6.396 l 1.613 0 c 0 -4.417 -3.587 -8 -8 -8 z" style="fill:#fff"/>
 <path d="m 10.583 3.332 0.015 0.02 0.04 -0.02 z m 0.03 0.668 3.387 3.664 0 -3.664 z" style="fill:#000;fill-opacity:0.196"/>
 <path d="m 10 0 3.996 4 -3.384 0 c -0.299 0 -0.613 -0.317 -0.613 -0.616 z" style="fill:#fff;fill-opacity:0.392"/>
</svg>
